icons/loop-16.svg

<svg width="16" height="16" viewBox="0 0 16 16" fill="none" xmlns="http://www.w3.org/2000/svg">
<path d="M1.89618 3.55922C4.33696 1.11844 8.29427 1.11844 10.735 3.55922C11.0276 3.85214 11.0278 4.327 10.735 4.61977C10.4423 4.91251 9.96741 4.91227 9.6745 4.61977C7.81951 2.76478 4.81172 2.76478 2.95673 4.61977C1.10188 6.47473 1.10188 9.4816 2.95673 11.3366C4.81172 13.1916 7.81951 13.1916 9.6745 11.3366L13.03 7.98012L11.4772 6.42641C11.3199 6.2689 11.4313 5.99965 11.654 5.99965H15.7497C15.8876 5.99965 15.9995 6.11175 15.9997 6.24965V10.3463C15.9996 10.569 15.7304 10.6806 15.5729 10.5231L14.0905 9.04067L10.735 12.3971C8.29427 14.8379 4.33696 14.8379 1.89618 12.3971C-0.544451 9.95636 -0.544457 5.99997 1.89618 3.55922Z" fill="#59636E"/>
</svg>

<svg xmlns="http://www.w3.org/2000/svg" width="16" height="16" viewBox="0 0 16 16"><path d="M1.896 3.559a6.25 6.25 0 0 1 8.839 0 .75.75 0 0 1-1.06 1.061 4.75 4.75 0 1 0 0 6.717L13.03 7.98l-1.553-1.554A.25.25 0 0 1 11.654 6h4.096a.25.25 0 0 1 .25.25v4.096a.25.25 0 0 1-.427.177l-1.482-1.482-3.356 3.356a6.25 6.25 0 0 1-8.839-8.838Z"/></svg>
